reader/components/icons/assets/zoom-in.svg

<svg viewBox="0 0 24 25" xmlns="http://www.w3.org/2000/svg">
<path d="M14.2507 9.00044V10.5005C14.2507 10.8099 13.9976 11.063 13.6882 11.063H11.063V13.6882C11.063 13.9976 10.8099 14.2507 10.5005 14.2507H9.00044C8.69105 14.2507 8.43791 13.9976 8.43791 13.6882V11.063H5.81278C5.50339 11.063 5.25026 10.8099 5.25026 10.5005V9.00044C5.25026 8.69105 5.50339 8.43791 5.81278 8.43791H8.43791V5.81278C8.43791 5.50339 8.69105 5.25026 9.00044 5.25026H10.5005C10.8099 5.25026 11.063 5.50339 11.063 5.81278V8.43791H13.6882C13.9976 8.43791 14.2507 8.69105 14.2507 9.00044ZM23.673 22.3464L22.3464 23.673C21.9058 24.1137 21.1932 24.1137 20.7573 23.673L16.0789 18.9994C15.868 18.7884 15.7508 18.5025 15.7508 18.2025V17.4384C14.096 18.7322 12.0146 19.501 9.75048 19.501C4.36428 19.501 0 15.1367 0 9.75048C0 4.36428 4.36428 0 9.75048 0C15.1367 0 19.501 4.36428 19.501 9.75048C19.501 12.0146 18.7322 14.096 17.4384 15.7508H18.2024C18.5025 15.7508 18.7884 15.868 18.9994 16.0789L23.673 20.7526C24.109 21.1932 24.109 21.9058 23.673 22.3464ZM16.1258 9.75048C16.1258 6.2253 13.2756 3.37516 9.75048 3.37516C6.2253 3.37516 3.37516 6.2253 3.37516 9.75048C3.37516 13.2756 6.2253 16.1258 9.75048 16.1258C13.2756 16.1258 16.1258 13.2756 16.1258 9.75048Z"/>
</svg>

<svg viewBox="0 0 24 25" xmlns="http://www.w3.org/2000/svg"><path d="M14.25 9v1.5c0 .31-.252.563-.562.563h-2.625v2.625c0 .31-.253.563-.563.563H9a.564.564 0 01-.562-.563v-2.625H5.813a.564.564 0 01-.563-.563V9c0-.309.253-.562.563-.562h2.625V5.813c0-.31.253-.563.562-.563h1.5c.31 0 .563.253.563.563v2.625h2.625c.31 0 .563.253.563.562zm9.423 13.346l-1.327 1.327a1.12 1.12 0 01-1.589 0l-4.678-4.674a1.124 1.124 0 01-.328-.796v-.765a9.703 9.703 0 01-6 2.063A9.749 9.749 0 010 9.751 9.749 9.749 0 019.75 0a9.749 9.749 0 019.751 9.75 9.703 9.703 0 01-2.063 6h.764c.3 0 .586.118.797.329l4.674 4.674c.436.44.436 1.153 0 1.593zM16.126 9.75A6.37 6.37 0 009.75 3.375 6.37 6.37 0 003.375 9.75a6.37 6.37 0 006.375 6.376 6.37 6.37 0 006.376-6.376z"/></svg>
